src/images/sidebar/explore/icons/sports_filled.svg

<svg xmlns="http://www.w3.org/2000/svg" width="24" height="24"><path style="stroke:none;fill-rule:nonzero;fill:#fff;fill-opacity:1" d="M18 5V2H6v3H4v6h2.012c.058 2.531 1.617 4.781 3.957 5.64.011 0 .02 0 .031.008V19H9v1H8v2h8v-2h-1v-1h-1v-2.352c.012 0 .02 0 .031-.007 2.328-.86 3.899-3.102 3.957-5.641H20V5zM6 10H5V6h1zm13 0h-1V6h1zm0 0"/></svg>

<svg xmlns="http://www.w3.org/2000/svg" viewBox="0 0 24 24" preserveAspectRatio="xMidYMid meet" focusable="false">
    <g fill="white">
        <path d="M18 5V2H6V5H4V6V10V11H6.01C6.07 13.53 7.63 15.78 9.97 16.64C9.98 16.64 9.99 16.64 10 16.65V19H9V20H8V22H16V20H15V19H14V16.65C14.01 16.65 14.02 16.65 14.03 16.64C16.36 15.78 17.93 13.54 17.99 11H20V10V6V5H18ZM6 10H5V6H6V10ZM19 10H18V6H19V10Z"></path>
    </g>
</svg>
